lib/healthicons/icons/outline/shapes/triangle_medium.svg

<svg fill="none" height="48" viewBox="0 0 48 48" width="48" xmlns="http://www.w3.org/2000/svg"><path clip-rule="evenodd" d="m24 8c.3788 0 .725.214.8944.55279l15 30.00001c.155.31.1385.6781-.0437.9729-.1823.2948-.5041.4743-.8507.4743h-30c-.34658 0-.66844-.1795-.85065-.4743s-.19877-.6629-.04378-.9729l15.00003-30.00001c.1694-.33879.5156-.55279.8944-.55279zm0 3.2361-13.382 26.7639h26.764z" fill="#333" fill-rule="evenodd"/></svg>

<svg width="48" height="48" viewBox="0 0 48 48" fill="none" xmlns="http://www.w3.org/2000/svg">
<path fill-rule="evenodd" clip-rule="evenodd" d="M24 8C24.3788 8 24.725 8.214 24.8944 8.55279L39.8944 38.5528C40.0494 38.8628 40.0329 39.2309 39.8507 39.5257C39.6684 39.8205 39.3466 40 39 40H9C8.65342 40 8.33156 39.8205 8.14935 39.5257C7.96714 39.2309 7.95058 38.8628 8.10557 38.5528L23.1056 8.55279C23.275 8.214 23.6212 8 24 8ZM24 11.2361L10.618 38H37.382L24 11.2361Z" fill="#333333"/>
</svg>
